svg/white/iotx.svg

<svg width="32" height="32" viewBox="0 0 32 32" version="1.1" xmlns="http://www.w3.org/2000/svg" xmlns:xlink="http://www.w3.org/1999/xlink"><title>svg/white/iotx</title><desc>Created with Sketch.</desc><g id="white/iotx" stroke="none" stroke-width="1" fill="none" fill-rule="evenodd"><path d="M13.5765622,22.0117355 L9.8602849,19.8711111 L9.8602849,25.3279772 L11.749539,24.2366469 L15.4703134,26.3766382 L15.4703134,20.9195442 L13.5765622,22.0117355 Z M10.2276923,12.3083148 L10.2507123,12.3215923 L10.2507123,17.7585185 L14.9805128,15.0339601 L13.0390055,13.9123916 L13.050701,13.9056549 L15.7766382,15.4777208 L15.7766382,10.0301418 L16.5189744,10.457094 L16.5189744,5 L11.7814245,7.73230769 L15.768564,10.0254979 L13.7610028,11.179988 L11.0388604,9.60740741 L11.0388604,12.7569493 L11.0388604,7.31908832 L6.30131054,10.0436467 L10.2219166,12.3049835 L5.49014245,15.0339601 L10.2276923,17.7585185 L10.2276923,12.3083148 Z M16,32 C7.163444,32 0,24.836556 0,16 C0,7.163444 7.163444,0 16,0 C24.836556,0 32,7.163444 32,16 C32,24.836556 24.836556,32 16,32 Z M16.5189744,5 L16.5189744,10.457094 L21.2565242,7.73230769 L16.5189744,5 Z M21.2565242,7.73230769 L21.2565242,13.1894017 L25.9940741,10.457094 L21.2565242,7.73230769 Z M16.5189744,10.457094 L16.5189744,15.914188 L21.2565242,13.1894017 L16.5189744,10.457094 Z M21.2565242,13.1894017 L21.2565242,18.6464957 L25.9940741,15.914188 L21.2565242,13.1894017 Z M16.5189744,15.914188 L16.5189744,21.3710541 L21.2565242,18.6464957 L16.5189744,15.914188 Z M21.2565242,18.6464957 L21.2565242,24.1033618 L25.9940741,21.3710541 L21.2565242,18.6464957 Z M4.27304843,10.2733903 L4.27304843,15.7304843 L9.01082621,12.9979487 L4.27304843,10.2733903 Z M6.73754986,15.7532764 L6.73754986,21.2103704 L11.4750997,18.4780627 L6.73754986,15.7532764 Z M16.4806838,22.2207407 L16.4806838,27.6778348 L21.2107123,24.9452991 L16.4806838,22.2207407 Z M16.5189744,15.914188 L11.7889459,18.6464957 L16.5189744,21.3710541 L16.5189744,15.914188 Z M6.73754986,17.1846154 L2,19.9091738 L6.73754986,22.6417094 L6.73754986,17.1846154 Z M25.9940741,10.457094 L21.2565242,13.1894017 L25.9940741,15.914188 L25.9940741,10.457094 Z M21.2565242,13.1894017 L16.5189744,15.914188 L21.2565242,18.6464957 L21.2565242,13.1894017 Z M25.9940741,15.914188 L21.2565242,18.6464957 L25.9940741,21.3710541 L25.9940741,15.914188 Z M21.2565242,18.6464957 L16.5189744,21.3710541 L21.2565242,24.1033618 L21.2565242,18.6464957 Z M21.2565242,7.73230769 L16.5189744,10.457094 L21.2565242,13.1894017 L21.2565242,7.73230769 Z" id="Combined-Shape" fill="#FFF" fill-rule="nonzero"/></g></svg>

<svg width="32" height="32" viewBox="0 0 32 32" xmlns="http://www.w3.org/2000/svg"><path d="M13.577 22.012l-3.717-2.14v5.456l1.89-1.091 3.72 2.14V20.92l-1.893 1.092zm-3.35-9.704l.024.014v5.437l4.73-2.725-1.942-1.122.012-.006 2.726 1.572V10.03l.742.427V5l-4.738 2.732 3.988 2.293-2.008 1.155-2.722-1.573v3.15-5.438L6.3 10.044l3.92 2.261-4.73 2.729 4.737 2.725v-5.45zM16 32C7.163 32 0 24.837 0 16S7.163 0 16 0s16 7.163 16 16-7.163 16-16 16zm.519-27v5.457l4.738-2.725L16.519 5zm4.738 2.732v5.457l4.737-2.732-4.737-2.725zm-4.738 2.725v5.457l4.738-2.725-4.738-2.732zm4.738 2.732v5.457l4.737-2.732-4.737-2.725zm-4.738 2.725v5.457l4.738-2.725-4.738-2.732zm4.738 2.732v5.457l4.737-2.732-4.737-2.725zM4.273 10.273v5.457l4.738-2.732-4.738-2.725zm2.465 5.48v5.457l4.737-2.732-4.737-2.725zm9.743 6.468v5.457l4.73-2.733-4.73-2.724zm.038-6.307l-4.73 2.732 4.73 2.725v-5.457zm-9.781 1.27L2 19.91l4.738 2.733v-5.457zm19.256-6.727l-4.737 2.732 4.737 2.725v-5.457zm-4.737 2.732l-4.738 2.725 4.738 2.732V13.19zm4.737 2.725l-4.737 2.732 4.737 2.725v-5.457zm-4.737 2.732l-4.738 2.725 4.738 2.732v-5.457zm0-10.914l-4.738 2.725 4.738 2.732V7.732z" fill="#FFF"/></svg>
